X:25
T:You'll Miss Me When I'm Gone
T:Australia
C:Jack Lumsdaine 
S:nla.obj-167217135
O:Australia
R:Waltz
M:4/4
L:1/8
K:Fmaj
[I:MIDI=program 60]z2A,2C2F2|A4|z2=B,2 D2F2 | A4|
w:It's par-ting hour and like some flower
w:How can I smile, when all the while
z2G2A2_B2 | c4G2^G2 | (A8 | A4)|
w:Your love has with-ered and died
w:I'm lone-ly as I can be
z2A2G2F2 | E8 | z2G2F2E2 | F8 | 
w:You bid me go. But still I know
w:Just like some barque, when nights are dark
z2D2E2F2 | A4F2D2 | (G8 | G4)||
w:You'll want me back by your side
w:Tossed by a wild stor-my sea
A,8 | C2F2A2c2 | (^F8 | ^F6)z2 | =B,8 | 
w:You'll miss me when I'm gone*You'll
D2F2A2^G2 | (=G8 | G6)z2 | C8 | D2E2A2c2 | A8 | 
w:want me la-ter on*Though oth-er arms may hold
G8 | G4F2z2 | G4F2z2 | D2C2D2E2 | D2C2=B,2_B,2 | 
w:You. You will stiill re-mem-ber love tales that I told you,
A,8 | C2F2A2c2 | (^F8 | ^F6)z2 | =B,8 | 
w:Each day will seem so long*Blue
D2F2A2^G2|(=G8 | G6)z2 | F6E2 | G2F2E2F2|A6G2|
w:birds won't sing their song. *Af-ter we have par-ted You'll be
B2A2^G2A2 | c6C2 | B2B2A2A2 |  [1F6z2:|  [2F8 |] 
w:broken* hearted*dear. You'll miss me when I'm gone

